X: 23647
T: Limerick Rake, The
R: waltz
M: 3/4
K: Dmajor
AG|F2 E2 F2|D2 F2 A2|G2 F2 G2|E4 AG|F2 D2 D2|D2 F2 A2|G2 F2 G2|
E4 AG|F2 E2 F2|D2 F2 A2|G2 B2 d2|d4 de|f2 e2 c2|d2 c2 A2|G2 F2 G2|E4||
AG|F2 E2 F2|D2 E2 A2|d6|A4 GG|F2 E2 F2|G2 E2 C2|(D6|D4)||

